X:1
T:Brudmarsch
S:Efter Arvid Nilsson
R:Marsch
O:Ganthem, Gotland
B:Gutalåtar nr 125
M:C
L:1/8
K:G
(B/d/g/b/)|:d2 d>d d2 (B/d/g/b/)|c2 (c>c) c2 ((3BcB)|
A2 (f>e) d2 (ef)|(g>f) (gb) d2 (B/d/g/b/)|d2 (d>d) d2 (B/d/g/b/)|
c2 c>c c2 ((3BcB)|A2 (f>e) d2 (ef)|1 g2 (g>g) g2 (B/d/g/b/):|
[2 g2 (g>g) g2 ((3gag)[K:C]|:e2 ed (c>B) (cA)|G2 (GF) (E>G) (cc)|
B2 (Bd) GG AB|(cB) (ca) g2 (gf)|e2 (ed) c>B (cA)|G2 (GF) (E>G) (cc)|
B2 (Bd) GG AB|1 c2 (c>c) c2 ((3gag):|2 c2 (c>c) c2|]

